X:5
T:Leaving Home
C:Rob Lindauer
M:3/4
L:1/8
R:waltz
N:I finished this waltz in July 2001 during the contra musicians' week at the
N:John C. Campbell Folk School. One of my fellow student musicians named it.
N:I had imagined the tune to be fast and strongly accented, but once we started
N:playing it, we found a slow tempo (dotted half = 50) worked better. -RL 
K:Am
E2|"Am"A4 B2|"Am"c4 e2|"Dm"d4 cd|"Am"e2 A2 e2|
"C"g4 ^f2|"C"e4 d2|"F"c2 d2 cd|"E"B4 B2|
"Am"A4 B2|"Am"c4 e2|"Dm"d4 cd|"Am"e2 A2 B2|
"F"c4 B2|"F"A4 G2|"Am" A2 B2 G2|"Am" A4 e2||:"C"g6|
"D"^f6|"Dm"d2 d2 e2|"Am"cB A2 e2|"Dm"d2 d2 e2|
"Am"cB A2 e2|"Am"cB A2 e2|"Dm"d2 c2 d2|"E"e4 e2|
"C"g6|"D"a6|"Dm"d2 d2 e2|"Am"cB A2 G2|
"Dm"AB c2 d2|"Am"ef e2 d2|"F"cB A2 G2|1"Am"A4 e2:|2"Am"A6|]
